img/about/skill_lottie.svg

<svg height="40" viewBox="0 0 40 40" width="40" xmlns="http://www.w3.org/2000/svg" xmlns:xlink="http://www.w3.org/1999/xlink"><linearGradient id="a" x1=".261%" x2="95.394%" y1="10.304%" y2="72.462%"><stop offset="0" stop-color="#2beaed"/><stop offset="1" stop-color="#0fccce"/></linearGradient><g fill="none" fill-rule="evenodd"><g fill-rule="nonzero" transform="translate(2 2)"><rect fill="url(#a)" height="36" rx="3.24" width="35.906" x=".055" y=".055"/><path d="m27.414989 7.13886434c.98486.14590692 1.6646787 1.06379415 1.5193424 2.04974302-.1453845.98627564-1.0615548 1.66823994-2.0467428 1.52228444-1.7445464-.2584544-4.3580815 2.4582656-7.2840969 8.0443616-3.7354236 7.131348-7.2122889 10.5291513-10.87275914 10.2580021-.99295386-.073553-1.737824-.9394532-1.66456209-1.9334579.07327425-.9941721.93728303-1.741158 1.9304049-1.6675925 1.80759983.1338978 4.46267423-2.6985597 7.41487573-8.3346476 3.7593187-7.17696657 7.2833684-10.48983593 11.0035379-9.93869316z" fill="#fff"/></g><path d="m0 0h40v40h-40z"/></g></svg>

<svg xmlns="http://www.w3.org/2000/svg" width="40" height="40" viewBox="0 0 40 40">
  <defs>
    <linearGradient id="skill_lottie-a" x1=".261%" x2="95.394%" y1="10.304%" y2="72.462%">
      <stop offset="0%" stop-color="#2BEAED"/>
      <stop offset="100%" stop-color="#0FCCCE"/>
    </linearGradient>
  </defs>
  <g fill="none" fill-rule="evenodd">
    <g fill-rule="nonzero" transform="translate(2 2)">
      <rect width="35.906" height="36" x=".055" y=".055" fill="url(#skill_lottie-a)" rx="3.24"/>
      <path fill="#FFF" d="M27.414989,7.13886434 C28.399849,7.28477126 29.0796677,8.20265849 28.9343314,9.18860736 C28.7889469,10.174883 27.8727766,10.8568473 26.8875886,10.7108918 C25.1430422,10.4524374 22.5295071,13.1691574 19.6034917,18.7552534 C15.8680681,25.8866014 12.3912028,29.2844047 8.73073256,29.0132555 C7.7377787,28.9397025 6.99290856,28.0738023 7.06617047,27.0797976 C7.13944472,26.0856255 8.0034535,25.3386396 8.99657537,25.4122051 C10.8041752,25.5461029 13.4592496,22.7136454 16.4114511,17.0775575 C20.1707698,9.90059093 23.6948195,6.58772157 27.414989,7.13886434 Z"/>
    </g>
    <rect width="40" height="40"/>
  </g>
</svg>
